X: 1928
T: Varalım Kûy-i Dilârâya Gönül
C: Münir Nurettin Selçuk
O: Turkey
F: http://compmusic.upf.edu/node/140
N: huseyni--sarki--aksak--varalim_kuy-i--munir_nurettin_selcuk
N: makam= huseyni
N: form= sarki
N: usul= aksak = 9/8
M: 9/8
L: 1/16
K: C _2/4B ^3/4f  
Q: 1/4=114
%%MIDI tuningsystem comma53
A4 d2e2 e4 e2f2 g2 | e2 edd2 =f2e2 d2c2 B2d2  | \
w:  *  Va ra lım  kûy_  |  *  *  *  i  di lâ *  râ  | 
c3B cBBA A8 z2 | 
w:  *  *  ya *  gö *  nül  | 
d2 ede8e2 f2g2  | f3e d2e2 e4 e=fed cB | \
w:  hû  *  *  *  hû   |  *  *  di ye rek   SAZ  | 
A4d2 e2e4e2 f2g2  | 
w:  *  Va ra lım  kûy_  | 
e2ed d2=f2 e2d2 c2B2 d2 | c3BcB BAA8z2  | \
w:  *  *  *  i  di lâ *  râ  |  *  *  ya *  gö *  nül  | 
d2ed e8 e2f2 g2 | 
w:  hû  *  *  *  hû   | 
f3ed2 e2e4e=f edcd  | e4 e2f2 g2^f2 g2f2 a2 | \
w:  *  *  di ye rek   SAZ  |  *  Ko ka lım *  gül  | 
e2 edag =feed dcd2 e2ed  | 
w:  *  *  *  le *  ri *  ni *  *  *  gon  | 
d4 c2d2 e2^2/4f2 {a}g2=f2 e2 | e2 eded cBc4cd c2d2  | \
w:  *  ca i hoş *  *  bû   |  *  *  *  di *  ye *  rek SAZ  | 
e4 d2e2 e2a2 agg=f fe | 
w:  *  Ko ka lım *  gül  | 
ed2cc2 d2cB BAAB cBAG  | ^F4 d2d2 d2c2 e4 dc | 
w:  *  *  *  le ri ni *  *  *  gon  |  *  ca i hoş *  bû   | 
c3BcB BAA4g3^fef  | g4 ^f2g2 g3f g4 gf | \
w:  *  *  di *  ye *  rek SAZ  |  *  Şer bet_ i  *  lâl_  | 
g4a2 =b2ag fef3/2e/ fgfe  | 
w:  *  i  ha ya *  *  *  li  | 
d4 e2^f2 g2a2 =b2a2 g2 | g2 g^fe2 f2g4a2 {_1/4b}agfg  | \
w:  *  bi zi öl *  dür  |  *  *  *  dü me det SAZ  | 
a4 g2a2 a4 c'2_1/4b2 a2 | 
w:  *  Şer bet_ i  lâl_  | 
a2 {_1/4b}agg2 {a}g^fg^3/4f feef g2fe  | \
w:  *  *  *  *  i  *  ha *  ya *  *  *  li  | 
e4 d2e2 e4 e2f2 g2 | 
w:  *  bi zi öl dür  | 
f3ed2 e2e4e=f edcd  | e4 e2f2 g2^f2 g2f2 a2 | \
w:  *  *  dü me det  |  *  Ko ka lım *  gül  | 
e2 edag =feed dcd2 e2ed  | 
w:  *  *  *  le *  ri *  ni *  *  *  gon  | 
d4 c2d2 e2^2/4f2 {a}g2=f2 e2 | e2 eded cBc4cd c2d2  | \
w:  *  ca i hoş *  *  bû   |  *  *  *  di *  ye *  rek SAZ  | 
e4 d2e2 e2a2 agg=f fe | 
w:  *  Ko ka lım *  gül  | 
ed2cc2 d2cB BAAB cBAG  | ^F4 d2d2 d2c2 e4 dc | 
w:  *  *  *  le ri ni *  *  *  gon  |  *  ca i hoş *  bû   | 
c3BcB BAA4|
w:  *  *  di *  ye *  rek  | 


